**kern	**kern	**dynam
*part1	*part1	*part1
*staff2	*staff1	*
*I"Piano	*	*
*clefF4	*clefG2	*
*k[]	*k[]	*
=1	=1	=1
4C 4c	8r	.
.	8ccL 8gg	.
*clefG2	*	*
4c 4g	8eeJ 8ccc	.
.	8r	.
*clefF4	*	*
=	=	=
4D	8r	.
.	8b-XL 8gg	.
4G 4B-X 4d	8ddJ 8bb-X	.
.	8r	.
=	=	=
4C#X	8r	.
.	8aL 8gg	.
4G 4A 4e	8eeJ 8aa	.
.	8r	.
=	=	=
4D	8r	.
.	8aL 8ff	.
4F 4A 4d	8ddJ 8aa	.
.	8r	.
=	=	=
!	!LO:TX:b:i:t=cresc.	!
4DD 4D	8r	.
.	8ccL 8ff#X	.
4F#X 4A 4d	8ddJ 8ccc	.
.	8r	.
=	=	=
4GG 4G	8r	.
.	8gL 8dd	.
4G 4c 4d	8ccJ 8gg	.
.	8r	.
=	=	=
4GG 4G	8r	.
.	8gL 8dd	.
4G 4d	8bJ 8gg	.
.	8r	mf
=	=	=
8FL	4B 4d	p
8G	.	.
8E	8.cL 8.e	.
8GJ	.	.
.	16cJk 16e	.
=	=	=
*-	*-	*-
!!!system-decoration: {(s1,s2)}
